static/assets/images/networks/sui-mono.svg

<svg width="178" height="256" viewBox="0 0 178 256" fill="none" xmlns="http://www.w3.org/2000/svg">
<path fill-rule="evenodd" clip-rule="evenodd" d="M12.1214 211.511C28.158 239.332 56.9738 256 89.047 256C121.12 256 149.936 239.332 165.973 211.511C182.009 183.69 182.009 150.48 165.973 122.658L98.3181 5.35748C94.1837 -1.78583 83.9103 -1.78583 79.7758 5.35748L12.1214 122.658C-4.04047 150.48 -4.04047 183.69 12.1214 211.511ZM70.0035 61.1254L84.4114 36.0612C86.416 32.5522 91.678 32.5522 93.6826 36.0612L149.184 132.308C159.332 149.978 161.337 170.406 154.947 189.204C154.321 186.196 153.319 183.063 152.066 179.93C144.423 160.505 127.009 145.592 100.448 135.566C82.1563 128.674 70.5047 118.397 65.8691 105.239C59.8554 88.1948 66.2449 69.6473 70.0035 61.1254ZM45.3222 103.735L28.9097 132.308C16.3811 154.114 16.3811 180.055 28.9097 201.861C41.4383 223.667 63.9898 236.575 89.047 236.575C105.71 236.575 121.245 230.81 133.524 220.659C135.152 216.649 140.038 201.987 133.899 186.823C128.261 172.787 114.731 161.633 93.5573 153.613C69.753 144.589 54.2175 130.428 47.4521 111.63C46.5751 108.998 45.9486 106.366 45.3222 103.735Z" fill="black"/>
</svg>

<svg xmlns="http://www.w3.org/2000/svg" fill="none" viewBox="0 0 178 256"><path fill="#000" fill-rule="evenodd" d="M12.121 211.511C28.158 239.332 56.974 256 89.047 256s60.889-16.668 76.926-44.489 16.036-61.031 0-88.853L98.318 5.358c-4.134-7.144-14.408-7.144-18.542 0l-67.655 117.3c-16.161 27.822-16.161 61.032 0 88.853M70.004 61.125 84.41 36.061c2.005-3.509 7.267-3.509 9.272 0l55.501 96.247c10.148 17.67 12.153 38.098 5.763 56.896-.626-3.008-1.628-6.141-2.881-9.274-7.643-19.425-25.057-34.338-51.618-44.364-18.292-6.892-29.943-17.169-34.579-30.327-6.014-17.044.376-35.592 4.135-44.114m-24.682 42.61L28.91 132.308c-12.529 21.806-12.529 47.747 0 69.553s35.08 34.714 60.137 34.714c16.663 0 32.198-5.765 44.477-15.916 1.628-4.01 6.514-18.672.375-33.836-5.638-14.036-19.168-25.19-40.342-33.21-23.804-9.024-39.34-23.185-46.105-41.983-.877-2.632-1.503-5.264-2.13-7.895" clip-rule="evenodd"/></svg>
